X: 65
T:Danny MacPhail's Dilemma
% Nottingham Music Database
S:Ian MacPhail, via Phil Rowe
M:6/8
K:D
"D"DFA BAF|"D"DFA dAF|"G"DGB dBG|"G"B3 -B2d|
"C7"EG_B d_BG|"C7"EG_B d=cB|"F"A^GA "Gm"_BA_B|"C"=c3 -=c2d||
"D"DFA BAF|"D"DFA dAF|"G"DGB dBG|"G"B3 -B2d|
"C7"EG_B d_BG|"C7"EG_B d=cB|"F"A_B=c "C7"BGE|"F"=F3 =FE_E||
K:F
"Bb"DFB DFB|"Bb"d2d dBF|"F"CFA CFA|"F"c3 -cAF|
"C7"E2e e2d|"C7"cdc _BAG|"F"F2f fed|"F"c3 -"F7"cAF||
K:F
"Bb"DFB DFB|"Bb"d2d dBF|"F"CFA CFA|"F"c3 -c=BA|
"G"G=Bd GBd|"G"g2g g2f|"C"e^de g2e|"F"c3 "F7"c2^c||
"Bb"d^cd DFB|"Bb"d2d d_BF|"F"cBc CFA|"F"c3 -cAF|
"C7"E2e e2d|"C7"cdc BAG|"F"F2f fed|"F"c3 c2^c||
"Bb"d^cd DFB|"Bb"d2d d_BF|"F"cBc CFA|"F"c3 -c=BA|
"G"G=Bd GBd|"G7"g2g g2f|"C"e^de g2e|"C"c3 "A7"c2^c||
K:D
"D"d2D DFA|"D"DFA dAF|"G"DGB dBG|"G"B3 -"B7"B2^d|
"E7"e2E E^GB|"E7"E^GB eB^G|"A7"EAc ecA|"A7"c3 cBc||
K:D
"D"d2D DFA|"D"DFA dAF|"G"DGB dBG|"G"B3 -B2c|
"D"dcd DFA|"G"B^AB B,DB|"A7"ABA GFE|"D"D3 -D3||<end>
<start>
